X:1
T: The Bluebells of Scotland
R: Strathspey
Q:128
K:D
M:4/4
L:1/16
|:A4|d8 c4B4|A8 B4c2d2|F4F4G4C4|D12A4|
d8c4B4|A8B4c2d2|F4F4G4C4|D12A2G2|
F4D4F4A4|d8B4c2d2|c4A4B4^G4|A8B4c4|
d8c4B4|A8B4c2d2|F4F4G4E4|D12:|
